src/assets/svg/icons/fa/nuevos/classic/thin/bridge-suspension classic thin.svg

<svg xmlns="http://www.w3.org/2000/svg" viewBox="0 0 640 512"><path d="M128 0C131.2 0 133.1 1.871 135.2 4.578L141.9 17.94C175.6 85.39 244.6 128 320 128C395.4 128 464.4 85.39 498.1 17.94L504.8 4.577C506.1 1.871 508.8 0 512 0C515.6 0 518.6 2.373 519.6 5.64C527.2 28.34 542.6 53.35 561.1 75.05C581.4 96.83 604.5 114.7 626.1 123.6C631.1 125.2 633.1 129.9 631.4 134C629.8 138.1 625.2 140.1 621 138.5C595.5 128.4 570.6 108.7 550 85.71C538.6 72.86 528.3 58.79 520 44.47V256H632C636.4 256 640 259.6 640 264C640 268.4 636.4 272 632 272H8C3.582 272 0 268.4 0 264C0 259.6 3.582 256 8 256H120V44.47C111.7 58.79 101.4 72.86 89.97 85.71C69.43 108.7 44.45 128.4 18.95 138.5C14.84 140.1 10.19 138.1 8.564 134C6.935 129.9 8.942 125.2 13.05 123.6C35.55 114.7 58.57 96.83 78.03 75.05C97.43 53.35 112.8 28.34 120.4 5.641C121.4 2.374 124.4 .0003 128 .0003L128 0zM136 256H216V120C216 119.1 216.1 118.2 216.4 117.4C183.7 99.47 155.8 73.08 136 40.32V256zM232 256H312V144L312 143.9C283.9 142.8 256.8 136.3 232 125.2V256zM328 256H408V125.2C383.2 136.3 356.1 142.8 328 143.9L328 144V256zM424 256H504V40.32C484.2 73.08 456.3 99.47 423.6 117.4C423.8 118.2 424 119.1 424 120V256zM32 336C80.6 336 120 375.4 120 424V472C120 485.3 130.7 496 144 496H176C189.3 496 200 485.3 200 472V456C200 389.7 253.7 336 320 336C386.3 336 440 389.7 440 456V472C440 485.3 450.7 496 464 496H496C509.3 496 520 485.3 520 472V424C520 375.4 559.4 336 608 336H632C636.4 336 640 339.6 640 344C640 348.4 636.4 352 632 352H608C568.2 352 536 384.2 536 424V472C536 494.1 518.1 512 496 512H464C441.9 512 424 494.1 424 472V456C424 398.6 377.4 352 320 352C262.6 352 216 398.6 216 456V472C216 494.1 198.1 512 176 512H144C121.9 512 104 494.1 104 472V424C104 384.2 71.76 352 32 352H8C3.582 352 0 348.4 0 344C0 339.6 3.582 336 8 336H32z"/></svg>

<svg xmlns="http://www.w3.org/2000/svg" viewBox="0 0 640 512"><!--! Font Awesome Pro 6.4.0 by @fontawesome - https://fontawesome.com License - https://fontawesome.com/license (Commercial License) Copyright 2023 Fonticons, Inc. --><path d="M128 0c3.2 0 6 1.9 7.2 4.6l6.7 13.4C175.6 85.4 244.6 128 320 128s144.4-42.6 178.1-110.1l6.7-13.4c1.3-2.7 4-4.6 7.2-4.6c3.6 0 6.6 2.4 7.6 5.6c7.6 22.7 22.9 47.7 42.3 69.4c19.5 21.8 42.5 39.6 65 48.6c4.1 1.6 6.1 6.3 4.5 10.4s-6.3 6.1-10.4 4.5c-25.5-10.1-50.5-29.8-71-52.8c-11.5-12.8-21.7-26.9-30-41.2V256H632c4.4 0 8 3.6 8 8s-3.6 8-8 8H512 128 8c-4.4 0-8-3.6-8-8s3.6-8 8-8H120V44.5c-8.3 14.3-18.6 28.4-30 41.2c-20.5 23-45.5 42.7-71 52.8c-4.1 1.6-8.8-.4-10.4-4.5s.4-8.8 4.5-10.4c22.5-8.9 45.5-26.8 65-48.6c19.4-21.7 34.7-46.7 42.3-69.4c1-3.3 4-5.6 7.6-5.6zm8 256h80V120c0-.9 .1-1.8 .4-2.6c-32.7-18-60.6-44.3-80.4-77.1V256zm96 0h80V144l0-.1c-28.1-1-55.2-7.5-80-18.7V256zm96 0h80V125.2c-24.8 11.1-51.9 17.6-80 18.7l0 .1V256zm96 0h80V40.3c-19.8 32.8-47.7 59.1-80.4 77.1c.3 .8 .4 1.7 .4 2.6V256zM8 336H32c48.6 0 88 39.4 88 88v48c0 13.3 10.7 24 24 24h32c13.3 0 24-10.7 24-24V456c0-66.3 53.7-120 120-120s120 53.7 120 120v16c0 13.3 10.7 24 24 24h32c13.3 0 24-10.7 24-24V424c0-48.6 39.4-88 88-88h24c4.4 0 8 3.6 8 8s-3.6 8-8 8H608c-39.8 0-72 32.2-72 72v48c0 22.1-17.9 40-40 40H464c-22.1 0-40-17.9-40-40V456c0-57.4-46.6-104-104-104s-104 46.6-104 104v16c0 22.1-17.9 40-40 40H144c-22.1 0-40-17.9-40-40V424c0-39.8-32.2-72-72-72H8c-4.4 0-8-3.6-8-8s3.6-8 8-8z"/></svg>
